X: 2
T: the Banks of Lough Gowna
O: Trad Irish
R: jig
M: 6/8
L: 1/8
K: Bm	% and D
[|:\
"Bm"B3 BAF | "D"FEF DFA | "Bm"~B3 BAF | "D"d2 e fdc | 
"Bm"~B3 BAF | "D"FEF DFA | "G"def "Em"gfe |1 "Bm"fdB BFA :| \
[2 "Bm"fdB B2A || 
[|:\
"D"def a2b | afb afe | "Bm"dFA def | "G"g2 g "A"fdB | 
"D"def a2b | afb afe | "G"def "Em"gfe |1 "Bm"fdB B2A :| \
[2 "Bm"fdB B3 || 
